assets/img/social-icons/vk.svg

<svg width="40" height="41" viewBox="0 0 40 41" fill="none" xmlns="http://www.w3.org/2000/svg">
<rect y="0.0625" width="40" height="40" rx="20" fill="#C9CED5" fill-opacity="0.16"/>
<path d="M20.9825 27.0625C13.466 27.0625 9.17864 21.8072 9 13.0625H12.7651C12.8888 19.4809 15.6646 22.1996 17.8632 22.7602V13.0625H21.4085V18.598C23.5796 18.3598 25.8607 15.8373 26.6302 13.0625H30.1755C29.8855 14.5016 29.3075 15.8642 28.4776 17.065C27.6477 18.2658 26.5837 19.2791 25.3523 20.0415C26.7269 20.7381 27.941 21.724 28.9145 22.9342C29.888 24.1445 30.5988 25.5515 31 27.0625H27.0974C26.7373 25.7501 26.0054 24.5753 24.9934 23.6853C23.9814 22.7953 22.7343 22.2298 21.4085 22.0595V27.0625H20.9825V27.0625Z" fill="white" fill-opacity="0.87"/>
</svg>

<svg xmlns="http://www.w3.org/2000/svg" width="40" height="41" fill="none"><rect width="40" height="40" y=".063" fill="#C9CED5" fill-opacity=".16" rx="20"/><path fill="#fff" fill-opacity=".87" d="M20.983 27.063c-7.517 0-11.804-5.256-11.983-14h3.765c.124 6.418 2.9 9.137 5.098 9.697v-9.698h3.546v5.536c2.17-.238 4.452-2.76 5.221-5.535h3.546a10.789 10.789 0 0 1-1.698 4.002 10.558 10.558 0 0 1-3.126 2.976 10.895 10.895 0 0 1 3.563 2.893A11.153 11.153 0 0 1 31 27.062h-3.903a6.94 6.94 0 0 0-2.104-3.377 6.726 6.726 0 0 0-3.584-1.625v5.003h-.426Z"/></svg>
